X:230
T: WOHL UNTER EINER LINDE SCHLIEF ICH DIE NACHT
N: Z0229
O: Europa, Mitteleuropa, Deutschland
R: Romanze, enttaeuschte Liebe
M: 2/4
L: 1/16
K: G
D2 | G3DG3B | B2G2A4 |
G4DB,D2 | B,4z2
Bc | d2d2d2Bc | d2B2G4 |
B4dcA2 | G4z2

@@@ Tune index: 9988
